X:13007
T:March of the Men of Devon, The
R:March
C:Trad.
O:Wales (despite the title!)
M:4/4
L:1/8
Q:1/4=120
K:D
A>G|"D"FD D2DFAd|"A"cAA2 Aceg|"Bm"fddc Bggf|"D"e/f/e/d/ c/d/c/B/ "G"A/B/A/G/ F/G/F/E/|
"D"FD D2DFAd|"A"cAA2 Aceg|"Bm"fddc "A7"Bgec|"D"d2d2 d2:|
|:fg|"D"affd fdfa|"A"geec eceg|"Bm"fddc Bggf|"D"e/f/e/d/ c/d/c/B/ "G"A/B/A/G/ F/G/F/E/|
"D"FD D2DFAd|"A"cAA2 Aceg|"Bm"fddc "A7"Bgec|"D"d2d2 d2:|

